modules/framework7-icons/icons/list_fill.svg

<?xml version="1.0" encoding="UTF-8"?>
<svg width="46px" height="46px" viewBox="0 0 46 46" version="1.1" xmlns="http://www.w3.org/2000/svg" xmlns:xlink="http://www.w3.org/1999/xlink">
    <!-- Generator: Sketch 40.1 (33804) - http://www.bohemiancoding.com/sketch -->
    <title>list_fill</title>
    <desc>Created with Sketch.</desc>
    <defs></defs>
    <g id="Page-1" stroke="none" stroke-width="1" fill="none" fill-rule="evenodd">
        <g id="list_fill" fill="#000000">
            <path d="M0,45 L0,0 L1,0 L45,0 L46,0 L46,46 L45,46 L0,46 L0,45 L0,45 Z M18,10 L40,10 L40,12 L18,12 L18,10 Z M18,22 L40,22 L40,24 L18,24 L18,22 Z M18,34 L40,34 L40,36 L18,36 L18,34 Z M10,13 C11.1045695,13 12,12.1045695 12,11 C12,9.8954305 11.1045695,9 10,9 C8.8954305,9 8,9.8954305 8,11 C8,12.1045695 8.8954305,13 10,13 Z M10,25 C11.1045695,25 12,24.1045695 12,23 C12,21.8954305 11.1045695,21 10,21 C8.8954305,21 8,21.8954305 8,23 C8,24.1045695 8.8954305,25 10,25 Z M10,37 C11.1045695,37 12,36.1045695 12,35 C12,33.8954305 11.1045695,33 10,33 C8.8954305,33 8,33.8954305 8,35 C8,36.1045695 8.8954305,37 10,37 Z" id="Combined-Shape"></path>
        </g>
    </g>
</svg>

<svg width="46" height="46" viewBox="0 0 46 46" xmlns="http://www.w3.org/2000/svg"><path d="M0 45V0h46v46H0v-1zm18-35h22v2H18v-2zm0 12h22v2H18v-2zm0 12h22v2H18v-2zm-8-21a2 2 0 1 0 0-4 2 2 0 0 0 0 4zm0 12a2 2 0 1 0 0-4 2 2 0 0 0 0 4zm0 12a2 2 0 1 0 0-4 2 2 0 0 0 0 4z" fill="#000" fill-rule="evenodd"/></svg>
